_astro/user-headset-duotone.2c2932bf.svg

<svg xmlns="http://www.w3.org/2000/svg" viewBox="0 0 448 512"><!--! Font Awesome Pro 6.4.2 by @fontawesome - https://fontawesome.com License - https://fontawesome.com/license (Commercial License) Copyright 2023 Fonticons, Inc.--><path d="M224 32c-88.4 0-160 71.6-160 160v16c0 8.8-7.2 16-16 16s-16-7.2-16-16v-16C32 86 118 0 224 0s192 86 192 192v16c0 61.9-50.1 112-112 112h-96c-17.7 0-32-14.3-32-32s14.3-32 32-32h32c17.7 0 32 14.3 32 32h32c44.2 0 80-35.8 80-80v-16c0-88.4-71.6-160-160-160zm-89.6 320h179.2c74.2 0 134.4 60.2 134.4 134.4 0 14.1-11.5 25.6-25.6 25.6H25.6C11.5 512 0 500.5 0 486.4 0 412.2 60.2 352 134.4 352z" class="fa-primary"/><path d="M96 192c0-70.7 57.3-128 128-128s128 57.3 128 128c0 13.9-2.2 27.3-6.3 39.8-8.3 14.5-23.9 24.2-41.7 24.2h-8.6c-11.1-19.1-31.7-32-55.4-32h-32c-35.3 0-64 28.7-64 64 0 1.4 0 2.7.1 4C114.8 268.6 96 232.5 96 192z" style="opacity:.4"/></svg>

<svg xmlns="http://www.w3.org/2000/svg" viewBox="0 0 448 512"><!--! Font Awesome Pro 6.4.2 by @fontawesome - https://fontawesome.com License - https://fontawesome.com/license (Commercial License) Copyright 2023 Fonticons, Inc. --><defs><style>.fa-secondary{opacity:.4}</style></defs><path class="fa-primary" d="M224 32C135.6 32 64 103.6 64 192v16c0 8.8-7.2 16-16 16s-16-7.2-16-16V192C32 86 118 0 224 0S416 86 416 192v16c0 61.9-50.1 112-112 112H240 224 208c-17.7 0-32-14.3-32-32s14.3-32 32-32h32c17.7 0 32 14.3 32 32h32c44.2 0 80-35.8 80-80V192c0-88.4-71.6-160-160-160zM134.4 352H313.6C387.8 352 448 412.2 448 486.4c0 14.1-11.5 25.6-25.6 25.6H25.6C11.5 512 0 500.5 0 486.4C0 412.2 60.2 352 134.4 352z"/><path class="fa-secondary" d="M96 192c0-70.7 57.3-128 128-128s128 57.3 128 128c0 13.9-2.2 27.3-6.3 39.8C337.4 246.3 321.8 256 304 256h-8.6c-11.1-19.1-31.7-32-55.4-32H208c-35.3 0-64 28.7-64 64c0 1.4 0 2.7 .1 4C114.8 268.6 96 232.5 96 192z"/></svg>
